X:1
T:045 - Por Amor de Nós
T:Letra: Richard Holden (1828-1886)
T:Música: Lowell Mason (1792-1872)
M:4/4
L:1/8
Q:1/4=115
K:Fmaj
V:1
F2| "F"A2 c2 c2 d2| "C"c4 "F"A2 F2| "C7"E2 F2 B2 A2| "F/C"A4 "C"G2 F2| "F"A2 c2 c2 d2| "C"c4 "F"A2 G2| A2 d2 "G7"c2 =B2| "C"c6 c2| "F"f2 c2 _B2 A2| "Bb"d4 "F"c2 "C7"e2| "F"f2 c2 B2 A2| "F/C"A4 "C"G2 F2| "F"A2 c2 c2 d2| "C"c4 "F"A2 F2| "Gm7"G2 B2 "F/C"A2 "C7"G2| "F"F6|]
w: 1.~Se-nhor, quão ad-mi-rá-vel É teu di-vi-noa-mor!_ E-ter-noe per-du-rá-vel, Mo-ti-vo de lou-vor. A-man-do-nos, bai-xas-te A es-te mun-doa-qui;_ Que-ren-do,as-sim, re-mir-nos E nos cha-mar a ti.  
w: 2.~Tu, por a-mor, pro-vas-te A nos-sa con-di-ção,_ E, por a-mor, le-vas-te A nos-sa pu-ni-ção. So-fres-teo de-sam-pa-ro, A i-raeo dis-sa-bor,_ De-vi-dos ao pe-ca-do, Ó gran-de So-fre-dor!  
w: 3.~Por nós Tu des-tea vi-da, Mor-ren-do so-brea cruz;_ Qual nos-so subs-ti-tu-to, So-fres-te Tu, Je-sus. Por is-so, Te cer-ca-mos Com gra-taa-do-ra-ção;_ Pe-ran-te ti pros-tra-mos Cor-po,al-mae co-ra-ção.  
w: 4.~E não jul-ga-mos pou-co, Em pro-va des-sea-mor,_ O ser-nos pre-mi-ti-do Ser-vir-tea-qui, Se-nhor. Ou se-jaem cul-toa-le-gre, Ou se-ja no so-frer,_ Ou se-ja nos tra-ba-lhos, Se-gun-doo teu que-rer.           			
W:	                    
W: 
W: 1. Senhor, quão admirável
W: É teu divino amor!
W: Eterno e perdurável,
W: Motivo de louvor.
W: Amando-nos, baixaste
W: A este mundo aqui;
W: Querendo, assim, remir-nos
W: E nos chamar a ti.
W: 
W: 2. Tu, por amor, provaste
W: A nossa condição,
W: E, por amor, levaste
W: A nossa punição.
W: Sofreste o desamparo,
W: A ira e o dissabor,
W: Devidos ao pecado,
W: Ó grande Sofredor!
W: 
W:
W:
W: 3. Por nós Tu deste a vida,
W: Morrendo sobre a cruz;
W: Qual nosso substituto,
W: Sofreste Tu, Jesus.
W: Por isso, Te cercamos
W: Com grata adoração;
W: Perante ti prostramos
W: Corpo, alma e coração.
W: 
W: 4. E não julgamos pouco,
W: Em prova desse amor,
W: O ser-nos premitido
W: Servir-te aqui, Senhor.
W: Ou seja em culto alegre,
W: Ou seja no sofrer,
W: Ou seja nos trabalhos,
W: Segundo o teu querer.
W: 
W:         
W: 	





